dist/svgs/git-pull-request.svg

<svg xmlns="http://www.w3.org/2000/svg" viewBox="0 0 512 512"><path d="M460 426q2 6 2 10v17q-1 3-1 6t-2 5q-6 22-24 35.5T394 513t-40.5-13.5T329 465q-7-22 0-42.5t27-34.5q4-2 4-7V175q0-15-9-26t-23-12h-36v68q-26-26-51.5-51T189 103q0 5-.5 8t-1.5 6q-6 27-28 42-4 3-4 8v214q0 5 3 7 20 14 27.5 35t-.5 43-27 35-42 12q-23-2-40.5-17.5T53 457q0-1-.5-2t-.5-2v-17l1-1q4-30 30-48 3-1 3-6V166q0-4-3-6-23-16-28-38-1-2-1.5-5t-1.5-5V95q0-2 .5-2.5T53 91q5-25 24-40.5T122 35q25 0 43.5 16.5T188 93q0 2 .5 4.5t.5 4.5q1-1 2-1l97-97 3-3v68h29q8 1 15 1t15 2q20 5 37 15.5t28 28.5q8 14 10.5 28t2.5 29v208q0 4 4 7 20 13 28 38zm-305 19q0-14-10-24.5T121 410t-24.5 10T86 444t10 24 24 11q14 0 24.5-10t10.5-24zm-34-308q14 0 24-10t10-24-10-24-24-10-24.5 10T86 103t10.5 24 24.5 10zm273 342q14 0 24-10t10-24-10-24.5-24-10.5-24 10-10 24 10 24 24 11z"/></svg>

<?xml version="1.0" encoding="UTF-8" standalone="no"?><svg   xmlns:svg="http://www.w3.org/2000/svg"   xmlns="http://www.w3.org/2000/svg"   version="1.1"   width="512"   height="512"   viewBox="0 0 512 512">  <path     d="M460 426Q462 432 462 436V453Q461 456 461 459T459 464Q453 486 435 499.5T394 513T353.5 499.5T329 465Q322 443 329 422.5T356 388Q360 386 360 381V175Q360 160 351 149T328 137H292V205Q266 179 240.5 154T189 103Q189 108 188.5 111T187 117Q181 144 159 159Q155 162 155 167V381Q155 386 158 388Q178 402 185.5 423T185 466T158 501T116 513Q93 511 75.5 495.5T53 457Q53 456 52.5 455T52 453V436L53 435Q57 405 83 387Q86 386 86 381V166Q86 162 83 160Q60 144 55 122Q54 120 53.5 117T52 112V95Q52 93 52.5 92.5T53 91Q58 66 77 50.5T122 35Q147 35 165.5 51.5T188 93Q188 95 188.5 97.5T189 102Q190 101 191 101L288 4L291 1V69H320Q328 70 335 70T350 72Q370 77 387 87.5T415 116Q423 130 425.5 144T428 173V381Q428 385 432 388Q452 401 460 426zM155 445Q155 431 145 420.5T121 410T96.5 420T86 444T96 468T120 479Q134 479 144.5 469T155 445zM121 137Q135 137 145 127T155 103T145 79T121 69T96.5 79T86 103T96.5 127T121 137zM394 479Q408 479 418 469T428 445T418 420.5T394 410T370 420T360 444T370 468T394 479z"     id="git-pull-request" /></svg>
